X:1
T:Title
%%score ( 1 2 ) { 3 | 4 }
L:1/8
Q:1/4=98
M:4/4
K:Eb
V:1 treble nm="Grand Piano, Soprano"
V:2 treble 
V:3 treble nm="Choir Pad, I Am Thinking of Home"
V:4 bass 
V:1
 [EG][FA] [GB]2 [GB][GB] [GB]2 | [EG][GB] [Ac]2 [Ac]2 [Ac]2 | [GB][GB] [Ac]2 [Ac][Ac] [GB]2 | %3
w: By~Robert~Lowry * * * * *|||
 [GB][EG] [DF]6 | [EG][FA] [GB]2 [GB][GB] [GB]2 | [EG][GB] [Ac]2 [Ac][Ac] [Ac]2 | %6
w: |||
 [GB][GB] [Ac]2 [Ac]2 [Ae]2 | [Ae][Ac] [GB]2 [GB][EG] [GB]2 | [EG][EF] E2 EE [DF]2 | %9
w: |||
 E[DF] [EG]4 [GB]2 | .G2 z2 z4 | [EG][GB] [GB]6 | [GB][GB] [Ac]2 [Ac][Ac][GB][GB]- | %13
w: ||||
 [GB][EG] [DF]6 | [EG][FA][GB][EB] [FB][FB] [GB]2 | [EG][GB] [Ac]2 [Ac]2 [Ae]2 | %16
w: |||
 [Ad][Ac][Ac][GB] [GB][EG][EG][FA] | [DF]2 E6- | E2 z2 z4 |] %19
w: |||
V:2
 x8 | x8 | x8 | x8 | x8 | x8 | x8 | x8 | x8 | x8 | E-[EF] E2 [DF][EG] E2 | x8 | x8 | x8 | x8 | x8 | %16
 x8 | x8 | x8 |] %19
V:3
 B,B, E2 EE E2 | B,E E2 E2 E2 | EE E2 EE E2 | E[K:bass]B, B,6 | B,B, E2[K:treble] EE E2 | %5
 B,E E2 EE E2 | EE E2 E2 C2 | CE E2 E[K:bass]B, E2 | B,A, G,2 G,G, B,2 | G,B, B,4 E2 | %10
 B,A, G,2 A,B, G,2 | B,[K:treble]E E2 E2 E2 | EE E2 EEE[K:bass]B,- | B,B, B,6 | %14
 B,2[K:treble] EE DD E2 | B,E E2 E2 C2 | EEEE CC C2 | C2 G,6- | G,2 z2 z4 |] %19
V:4
 E,E, E,2 E,E, E,2 | E,E, A,2 A,2 A,2 | E,E, A,2 A,A, E,2 | E,2 B,,6 | E,E, E,2 E,E, E,2 | %5
 E,E, A,2 A,A, A,2 | E,E, A,2 A,2 A,2 | A,A, E,2 E,E, E,2 | E,E, E,2 E,E, B,,2 | B,,B,, E,6 | %10
 E,2 E,2 B,,2 E,2 | E,2 E,2 E,2 E,2 | E,E, A,2 A,A,E,E,- | E,E, B,,6 | E,2 E,G, B,B,, E,2 | %15
 E,E, A,2 A,2 A,2 | A,,A,,B,,B,, B,,B,, B,,2 | B,,2 E,6- | E,2 z2 z4 |] %19

